X:820
T:Reel 820
M:4/4
K:Gmaj
L:1/8
GF|DGGA BGAF|DEFd cAFA|DGGA BGAc| (3Bcd ef gedB|G2GF GABc|dedc Bdef|gefd ecdB|AGAG F2:||:ef|g2ge fgaf|g2ge fgef|gfge fgaf|bgef g2 (3def |gfge fgaf|gfge fddf|gfge fgac|bgef g2|
